collections/iconoir/dialpad.svg

<svg stroke-width="1.5" fill="none" xmlns="http://www.w3.org/2000/svg" viewBox="0 0 24 24" width="20" height="20"><path d="M5.5 5a.5.5 0 110-1 .5.5 0 010 1zm0 5a.5.5 0 110-1 .5.5 0 010 1zm0 5a.5.5 0 110-1 .5.5 0 010 1zM12 5a.5.5 0 110-1 .5.5 0 010 1zm0 5a.5.5 0 110-1 .5.5 0 010 1zm0 5a.5.5 0 110-1 .5.5 0 010 1zm0 5a.5.5 0 110-1 .5.5 0 010 1zm6.5-15a.5.5 0 110-1 .5.5 0 010 1zm0 5a.5.5 0 110-1 .5.5 0 010 1zm0 5a.5.5 0 110-1 .5.5 0 010 1z" fill="currentColor" stroke="currentColor" stroke-linecap="round" stroke-linejoin="round"/></svg>

<svg stroke-width="1.5" fill="none" xmlns="http://www.w3.org/2000/svg" viewBox="0 0 24 24" width="20" height="20"><path d="M5.5 5a.5.5 0 110-1 .5.5 0 010 1zM5.5 10a.5.5 0 110-1 .5.5 0 010 1zM5.5 15a.5.5 0 110-1 .5.5 0 010 1zM12 5a.5.5 0 110-1 .5.5 0 010 1zM12 10a.5.5 0 110-1 .5.5 0 010 1zM12 15a.5.5 0 110-1 .5.5 0 010 1zM12 20a.5.5 0 110-1 .5.5 0 010 1zM18.5 5a.5.5 0 110-1 .5.5 0 010 1zM18.5 10a.5.5 0 110-1 .5.5 0 010 1zM18.5 15a.5.5 0 110-1 .5.5 0 010 1z" fill="currentColor" stroke="currentColor" stroke-linecap="round" stroke-linejoin="round"/></svg>
